X:47
T:Toss the Feathers
S:Transcribed by and from Alan Ng
N:An example setting for slow whistle with tongues (only before notes with dot!) but no rolls. 2 notes on same pitch requires a cut, 3 requires 2 different kinds of cuts.
Z: id:ng-reels-47 transcribed by Alan Ng alan@alan-ng.nospam (net) 10 Feb 2002
M:C|
K:EDor
E:10
.EBBB d.BBB|E.BBB F.AF.A|B.EEA .B2Bc|d.fed dBAF:|\
B.eed e2de|f.ede f.ee2|f.ebe f.ebe|fede f.ee2|\
B.eed e2.de|f.ede faaf|bbbf aaaf|(3efg.fe d.BAF|]*
